X:1457
T:Bill's a Bonny Lad
M:4/4
L:1/8
K:D
fefd cesesg|fefd g2 fe|fefd cesesg|fa Ac d3s ds:|!
ABAG FDDF|ABAG d2 csBs|ABAG FDDg|fa Ac d3 d:|


